build/img/landings/smm-strategy/pic100.svg

<svg width="765" height="596" fill="none" xmlns="http://www.w3.org/2000/svg"><path stroke="#000" stroke-width="5" d="M-5264.5-17203.2h9459v28010.7h-9459z"/><path fill-rule="evenodd" clip-rule="evenodd" d="M411.466 208.796c9.663 2.589 19.595-3.146 22.184-12.808l17.146-63.989c2.589-9.663-3.145-19.595-12.808-22.184l-63.989-17.146c-9.663-2.59-19.595 3.145-22.184 12.808l-17.146 63.989c-2.589 9.663 3.146 19.595 12.808 22.184l63.989 17.146zm-10.029-21.261l18.824-10.868-12.68-21.961 21.961-12.679-10.868-18.824-21.961 12.68-12.679-21.962-18.824 10.868 12.68 21.962-21.961 12.679 10.867 18.824 21.962-12.68 12.679 21.961zm-99.292 406.899c9.662 2.589 19.595-3.145 22.184-12.808l77.105-287.761c2.589-9.663-3.145-19.595-12.808-22.184l-287.761-77.106c-9.663-2.589-19.595 3.145-22.184 12.808L1.575 495.144c-2.589 9.663 3.146 19.595 12.809 22.184l287.761 77.106zm-72.259-79.923l61.38-35.438-41.344-71.61 71.609-41.344-35.437-61.38-71.61 41.344-41.343-71.609-61.38 35.437 41.343 71.61-71.61 41.344 35.438 61.38 71.61-41.344 41.344 71.61zm340.58-170.715c9.663 2.589 19.595-3.146 22.184-12.808l17.146-63.989c2.589-9.663-3.145-19.595-12.808-22.184l-63.989-17.146c-9.663-2.589-19.595 3.145-22.184 12.808l-17.146 63.989c-2.589 9.663 3.146 19.595 12.808 22.184l63.989 17.146zm-10.029-21.261l18.824-10.868-12.68-21.961 21.961-12.679-10.868-18.824-21.961 12.68-12.679-21.962-18.824 10.868 12.68 21.962-21.961 12.679 10.867 18.824 21.962-12.68 12.679 21.961zm147.254-125.601c9.662 2.589 19.594-3.145 22.184-12.808l34.059-127.11c2.589-9.663-3.146-19.595-12.808-22.184L624.015.772c-9.662-2.589-19.594 3.146-22.184 12.809l-34.059 127.11c-2.589 9.663 3.146 19.595 12.808 22.184l127.111 34.059zm-27.583-37.808l30.828-17.799-20.766-35.966 35.966-20.764-17.798-30.828-35.966 20.765-20.765-35.966-30.828 17.798 20.765 35.966-35.966 20.765 17.798 30.828 35.967-20.765 20.765 35.966z" fill="#7B61FF"/></svg>

<svg width="765" height="596" viewBox="0 0 765 596" fill="none" xmlns="http://www.w3.org/2000/svg">
<rect x="-5264.5" y="-17203.2" width="9459" height="28010.7" stroke="black" stroke-width="5"/>
<path fill-rule="evenodd" clip-rule="evenodd" d="M411.466 208.796C421.129 211.385 431.061 205.65 433.65 195.988L450.796 131.999C453.385 122.336 447.651 112.404 437.988 109.815L373.999 92.6688C364.336 90.0797 354.404 95.814 351.815 105.477L334.669 169.466C332.08 179.129 337.815 189.061 347.477 191.65L411.466 208.796ZM401.437 187.535L420.261 176.667L407.581 154.706L429.542 142.027L418.674 123.203L396.713 135.883L384.034 113.921L365.21 124.789L377.89 146.751L355.929 159.43L366.796 178.254L388.758 165.574L401.437 187.535Z" fill="#7B61FF"/>
<path fill-rule="evenodd" clip-rule="evenodd" d="M302.145 594.434C311.807 597.023 321.74 591.289 324.329 581.626L401.434 293.865C404.023 284.202 398.289 274.27 388.626 271.681L100.865 194.575C91.2022 191.986 81.27 197.72 78.6809 207.383L1.57549 495.144C-1.01364 504.807 4.72068 514.739 14.3835 517.328L302.145 594.434ZM229.886 514.511L291.266 479.073L249.922 407.463L321.531 366.119L286.094 304.739L214.484 346.083L173.141 274.474L111.761 309.911L153.104 381.521L81.4942 422.865L116.932 484.245L188.542 442.901L229.886 514.511Z" fill="#7B61FF"/>
<path fill-rule="evenodd" clip-rule="evenodd" d="M570.466 343.796C580.129 346.385 590.061 340.65 592.65 330.988L609.796 266.999C612.385 257.336 606.651 247.404 596.988 244.815L532.999 227.669C523.336 225.08 513.404 230.814 510.815 240.477L493.669 304.466C491.08 314.129 496.815 324.061 506.477 326.65L570.466 343.796ZM560.437 322.535L579.261 311.667L566.581 289.706L588.542 277.027L577.674 258.203L555.713 270.883L543.034 248.921L524.21 259.789L536.89 281.751L514.929 294.43L525.796 313.254L547.758 300.574L560.437 322.535Z" fill="#7B61FF"/>
<path fill-rule="evenodd" clip-rule="evenodd" d="M707.691 196.934C717.353 199.523 727.285 193.789 729.875 184.126L763.934 57.0157C766.523 47.3529 760.788 37.4208 751.126 34.8317L624.015 0.772593C614.353 -1.81655 604.421 3.91778 601.831 13.5806L567.772 140.691C565.183 150.354 570.918 160.286 580.58 162.875L707.691 196.934ZM680.108 159.126L710.936 141.327L690.17 105.361L726.136 84.5966L708.338 53.7687L672.372 74.5335L651.607 38.5678L620.779 56.3663L641.544 92.332L605.578 113.097L623.376 143.925L659.343 123.16L680.108 159.126Z" fill="#7B61FF"/>
</svg>
